brandFactory_export/1.Light/Tranvía _1Light.svg

<?xml version="1.0" encoding="UTF-8"?>
<svg width="24px" height="24px" viewBox="0 0 24 24" version="1.1" xmlns="http://www.w3.org/2000/svg" xmlns:xlink="http://www.w3.org/1999/xlink">
    <title>1.Light/Tranvía _1Light</title>
    <g id="Symbols" stroke="none" stroke-width="1" fill="none" fill-rule="evenodd">
        <g id="1.Light/Tranvía-_1Light" fill="#5CB615" fill-rule="nonzero">
            <path d="M20.312605,19.5327731 L20.2218487,19.5932773 C20,19.7411765 19.7344538,19.8151261 19.4991597,19.8117647 L18.3697479,19.805042 C18.1008403,19.0453782 17.4386555,18.5983193 16.5142857,18.5983193 C15.5932773,18.5983193 14.9310924,19.0420168 14.6621849,19.794958 L10.7865546,19.7882353 C10.5142857,19.0386555 9.85546218,18.5983193 8.93445378,18.5983193 C8.01344538,18.5983193 7.35798319,19.0352941 7.08571429,19.7848739 L5.79495798,19.7848739 C5.52268908,19.0386555 4.86386555,18.5983193 3.94621849,18.5983193 C3.02857143,18.5983193 2.37310924,19.0352941 2.09747899,19.7815126 L0.991596639,19.7815126 L0.991596639,17.4184874 L22.3462185,17.4184874 C21.8857143,18.4705882 20.9848739,19.0823529 20.312605,19.5327731 Z M16.5109244,21.6739496 C15.8319328,21.6739496 15.5058824,21.3344538 15.5058824,20.6420168 C15.5058824,19.9462185 15.8352941,19.6067227 16.5109244,19.6067227 C17.1865546,19.6067227 17.5159664,19.9462185 17.5159664,20.6420168 C17.5159664,21.3378151 17.1865546,21.6739496 16.5109244,21.6739496 Z M8.93109244,21.6739496 C8.25210084,21.6739496 7.92268908,21.3344538 7.92268908,20.6420168 C7.92268908,19.9462185 8.25210084,19.6067227 8.93109244,19.6067227 C9.60672269,19.6067227 9.93613445,19.9462185 9.93613445,20.6420168 C9.9394958,21.3378151 9.60672269,21.6739496 8.93109244,21.6739496 Z M3.9394958,21.6739496 C3.26386555,21.6739496 2.93445378,21.3344538 2.93445378,20.6420168 C2.93445378,19.9462185 3.26386555,19.6067227 3.9394958,19.6067227 C4.61848739,19.6067227 4.94789916,19.9462185 4.94789916,20.6420168 C4.94789916,21.3378151 4.61848739,21.6739496 3.9394958,21.6739496 Z M0.98487395,14.1310924 L4.34285714,14.1310924 L4.34285714,10.5915966 L0.98487395,10.5915966 L0.98487395,14.1310924 Z M5.32773109,14.1310924 L8.12773109,14.1310924 L8.12773109,10.5915966 L5.32773109,10.5915966 L5.32773109,14.1310924 Z M9.11260504,14.1310924 L12.2084034,14.1310924 L12.2084034,10.5915966 L9.11260504,10.5915966 L9.11260504,14.1310924 Z M14.1915966,8.58487395 L14.1915966,14.7159664 C14.1915966,14.994958 14.4134454,15.2201681 14.6823529,15.2201681 L22.5613445,15.2201681 C22.6319328,15.687395 22.6386555,16.107563 22.5915966,16.4806723 C22.5176471,16.4369748 22.4403361,16.4067227 22.3495798,16.4067227 L0.98487395,16.4067227 L0.98487395,15.1361345 L12.6991597,15.1361345 C12.9714286,15.1361345 13.189916,14.9109244 13.189916,14.6319328 L13.189916,10.0840336 C13.189916,9.80504202 12.9680672,9.57983193 12.6991597,9.57983193 L0.98487395,9.57983193 L0.98487395,8.58823529 L14.1915966,8.58487395 Z M10.1714286,5.82857143 L11.7445378,5.82857143 L10.0403361,7.57647059 L8.46722689,7.57647059 L10.1714286,5.82857143 Z M9.00168067,4.82016807 L14.4537815,4.82016807 L14.4537815,3.02184874 L9.00168067,3.02184874 L9.00168067,4.82016807 L9.00168067,4.82016807 Z M21.7915966,12.887395 C22.0201681,13.3647059 22.1915966,13.8016807 22.3226891,14.2117647 L15.1731092,14.2117647 L15.1731092,8.58487395 L15.4420168,8.58487395 C15.4857143,8.58823529 19.8420168,8.84369748 21.7915966,12.887395 Z M22.6722689,12.4403361 C20.4672269,7.86890756 15.6907563,7.58655462 15.4621849,7.57647059 L11.4285714,7.57647059 L13.112605,5.85210084 C13.1193277,5.84537815 13.1193277,5.83529412 13.1260504,5.82857143 L14.9411765,5.82857143 C15.2134454,5.82857143 15.4319328,5.60336134 15.4319328,5.32436975 L15.4319328,3.02184874 L22.9579832,3.02184874 C23.2302521,3.02184874 23.4487395,2.79663866 23.4487395,2.51764706 C23.4487395,2.23865546 23.2302521,2.01344538 22.9579832,2.01344538 L0.490756303,2.01344538 C0.218487395,2.01344538 0,2.23865546 0,2.51764706 C0,2.79663866 0.221848739,3.02184874 0.490756303,3.02184874 L8.01680672,3.02184874 L8.01680672,5.32436975 C8.01680672,5.60336134 8.23865546,5.82857143 8.50756303,5.82857143 L8.77983193,5.82857143 L7.07563025,7.57647059 L0.490756303,7.57647059 C0.359663866,7.57647059 0.235294118,7.6302521 0.144537815,7.72436975 C0.0504201681,7.81848739 0,7.94621849 0,8.08067227 L0,14.6319328 C0,14.6352941 0,14.6386555 0.00336134454,14.6386555 L0.00336134454,16.9008403 C0.00336134454,16.9042017 0,16.907563 0,16.9109244 C0,16.9142857 0.00336134454,16.9176471 0.00336134454,16.9210084 L0.00336134454,20.2823529 C0.00336134454,20.5613445 0.225210084,20.7865546 0.494117647,20.7865546 L1.95966387,20.7865546 C2.02016807,21.9529412 2.76302521,22.6789916 3.9394958,22.6789916 C5.11596639,22.6789916 5.85882353,21.9563025 5.91932773,20.789916 L6.9512605,20.789916 C7.01176471,21.9563025 7.75462185,22.6789916 8.93109244,22.6789916 C10.1042017,22.6789916 10.8470588,21.9563025 10.907563,20.7932773 L14.5310924,20.8 C14.594958,21.9596639 15.3378151,22.6789916 16.507563,22.6789916 C17.6739496,22.6789916 18.4134454,21.9663866 18.4840336,20.8134454 L19.4857143,20.8201681 L19.5058824,20.8201681 C19.9563025,20.8201681 20.3764706,20.6890756 20.7563025,20.4336134 L20.8470588,20.3731092 C22.2352941,19.4453782 25.1193277,17.5092437 22.6722689,12.4403361 L22.6722689,12.4403361 Z" id="Tranvía-_1Light"></path>
        </g>
    </g>
</svg>

<svg width="24" height="24" viewBox="0 0 24 24" xmlns="http://www.w3.org/2000/svg"><path d="M20.313 19.533l-.091.06a1.305 1.305 0 01-.723.219l-1.13-.007c-.268-.76-.93-1.207-1.855-1.207-.92 0-1.583.444-1.852 1.197l-3.875-.007c-.273-.75-.932-1.19-1.853-1.19-.92 0-1.576.437-1.848 1.187H5.795c-.272-.746-.931-1.187-1.849-1.187-.917 0-1.573.437-1.849 1.184H.992v-2.364h21.354c-.46 1.053-1.361 1.664-2.033 2.115zm-3.802 2.14c-.68 0-1.005-.339-1.005-1.031 0-.696.33-1.035 1.005-1.035.676 0 1.005.34 1.005 1.035 0 .696-.33 1.032-1.005 1.032zm-7.58 0c-.679 0-1.008-.339-1.008-1.031 0-.696.33-1.035 1.008-1.035.676 0 1.005.34 1.005 1.035.003.696-.33 1.032-1.005 1.032zm-4.992 0c-.675 0-1.005-.339-1.005-1.031 0-.696.33-1.035 1.005-1.035.68 0 1.009.34 1.009 1.035 0 .696-.33 1.032-1.009 1.032zM.985 14.132h3.358v-3.54H.985v3.54zm4.343 0h2.8v-3.54h-2.8v3.54zm3.785 0h3.095v-3.54H9.113v3.54zm5.079-5.546v6.131c0 .279.221.504.49.504h7.88a4.6 4.6 0 01.03 1.26.466.466 0 00-.242-.073H.985v-1.27h11.714c.272 0 .49-.226.49-.505v-4.548a.499.499 0 00-.49-.504H.985v-.992l13.207-.003zm-4.02-2.756h1.573L10.04 7.576H8.467l1.704-1.747zM9.001 4.82h5.452V3.022H9.002V4.82zm12.79 8.067c.228.478.4.915.53 1.325h-7.149V8.585h.269c.044.003 4.4.259 6.35 4.302zm.88-.447c-2.205-4.571-6.981-4.853-7.21-4.864H11.43l1.684-1.724c.006-.007.006-.017.013-.023h1.815c.272 0 .49-.226.49-.505V3.022h7.527c.272 0 .49-.225.49-.504a.496.496 0 00-.49-.505H.491A.496.496 0 000 2.518c0 .279.222.504.49.504h7.527v2.302c0 .28.222.505.49.505h.273L7.076 7.576H.49A.5.5 0 000 8.08l-.001 6.552c0 .003 0 .007.003.007V16.9L0 16.91l.003.01v3.361c0 .28.222.505.491.505H1.96c.06 1.166.803 1.892 1.98 1.892 1.176 0 1.919-.723 1.98-1.89H6.95c.06 1.167.804 1.89 1.98 1.89 1.173 0 1.916-.723 1.977-1.886l3.623.007c.064 1.16.807 1.879 1.977 1.879 1.166 0 1.905-.713 1.976-1.866l1.002.007h.02c.45 0 .87-.13 1.25-.386l.091-.06c1.388-.929 4.272-2.865 1.825-7.934z" fill="#5CB615" fill-rule="nonzero"/></svg>
